X:299
T:Touch Me If You Dare
R:reel
M:4/4
L:1/8
K:Gmaj
dc |BG ~G2 AGEG |BG ~G2 Bdgd |B3 G AGED |EAAG A2 GA |
BG ~G2 AGEG |BG ~G2 Bdgd |B3 G AGED |EG GF G2 :|
|:Bc |dega bgag |eg d2 eg d2 |dega bgag |eaag a2 ge |
dega bgag |eg d2 eg d2 |B3 G AGED |EG GF G2 :|z8 ||

